X: 27818
T: Morven
R: jig
M: 6/8
K: Amajor
|:cBB BAA|cee f2e|aA/A/A f2e|efe c2a|
cBB BAA|cee f2e|f/g/af ece|1 faa ~a3:|2 faa ~a2g||
|:aA/A/A f2e|efe cAA|aA/A/A f2e|efe c2e|
aA/A/A f2e|efe cAA|a2f ece|1 faa ~a2g:|2 faa ~a3||
|:c2B cAA|cee f2e|faa eff|cee c2B|
AcB cAA|cee f2e|f/g/af ece|1 faa ~a3:|2 faa ~a2g||
|:aA/A/A eA/A/A|fA/A/A eA/A/A|aA/A/A eA/A/A|efe c2e|
aA/A/A eA/A/A|fA/A/A eA/A/A|1 f/g/af ece|faa ~a2g:|2 a2f ece|faa ~a3||

